packages/core/src/svgs/tokens/mono/PUSH.svg

<svg width="24" height="24" viewBox="0 0 24 24" fill="none" xmlns="http://www.w3.org/2000/svg">
<path d="M4.39696 18.7999C4.16017 18.7744 3.68018 18.5567 3.68018 17.8784C3.68018 17.1936 4.24338 16.8928 4.52497 16.88C5.90734 16.88 6.20813 15.856 6.24014 15.2863V10.2561C6.24014 6.99215 9.03054 5.46897 10.3745 5.11699C10.3745 3.8562 11.3856 3.47861 11.9616 3.44021C11.9873 3.43953 12.0128 3.43953 12.0384 3.44021C12.6145 3.47861 13.6256 3.8562 13.6256 5.11699C14.9696 5.46897 17.76 6.99215 17.76 10.2561V15.2863C17.7919 15.8625 18.0927 16.88 19.475 16.88C19.7567 16.8928 20.3199 17.2 20.3199 17.8784C20.3199 18.5567 19.8398 18.7744 19.6032 18.7999H4.39696ZM12 22C10.4065 22 9.12014 20.8479 9.12014 19.44H14.88C14.88 20.8479 13.5936 22 12 22Z" fill="white"/>
<path d="M4.39696 18.7999H19.6032C19.8398 18.7744 20.3199 18.5567 20.3199 17.8784C20.3199 17.1936 19.7567 16.8927 19.475 16.88C18.0927 16.88 17.7919 15.856 17.76 15.2863V10.2561C17.76 6.99215 14.9696 5.46897 13.6256 5.11699C13.6256 3.8562 12.6145 3.47861 12.0384 3.44021C12.0128 3.43953 11.9873 3.43953 11.9616 3.44021C11.3856 3.47861 10.3745 3.8562 10.3745 5.11699C9.03054 5.46897 6.24014 6.99215 6.24014 10.2561V15.2863C6.19943 15.7627 5.9777 16.2055 5.62056 16.5233C5.26342 16.8412 4.79804 17.0101 4.32016 16.9951C4.03857 17.008 3.68018 17.1936 3.68018 17.8784C3.68018 18.5567 4.16017 18.7744 4.39696 18.7999Z" fill="white"/>
<path d="M7.63486 3.76019C7.64173 3.78075 7.64436 3.80251 7.64255 3.82413C7.64076 3.84574 7.63458 3.86676 7.62441 3.88592C7.61422 3.90507 7.60026 3.92196 7.58336 3.93555C7.56645 3.94914 7.54697 3.95916 7.52607 3.96498C4.90211 4.75216 4.46693 6.97292 4.57572 7.98411C4.57996 8.02654 4.56718 8.06891 4.54018 8.10193C4.51316 8.13493 4.47416 8.15586 4.43172 8.1601C4.38929 8.16435 4.34691 8.15155 4.3139 8.12456C4.28089 8.09756 4.25997 8.05854 4.25573 8.01611C4.1854 7.03093 4.46626 6.05267 5.04851 5.25485C5.63077 4.45704 6.47677 3.89123 7.43648 3.65778C7.51967 3.63218 7.60927 3.67698 7.63486 3.76658V3.76019Z" fill="white"/>
<path d="M7.48785 2.11542C7.49784 2.15527 7.49211 2.19744 7.47186 2.23317C7.45159 2.26892 7.41837 2.2955 7.37907 2.30742C3.67353 3.4274 3.06553 6.56334 3.21913 7.98412C3.22124 8.00513 3.21918 8.02635 3.21308 8.04656C3.20698 8.06678 3.19696 8.08559 3.18359 8.10194C3.17021 8.11828 3.15375 8.13182 3.13515 8.14181C3.11654 8.15179 3.09614 8.15802 3.07513 8.16011C3.05412 8.16221 3.0329 8.16015 3.0127 8.15406C2.99248 8.14795 2.97366 8.13793 2.95731 8.12457C2.94097 8.1112 2.92743 8.09473 2.91744 8.07612C2.90746 8.05752 2.90124 8.03713 2.89915 8.01612C2.73914 6.49934 3.39194 3.17781 7.28947 2.00662C7.37266 1.98103 7.46226 2.03222 7.48785 2.11542Z" fill="white"/>
<path d="M16.3646 3.76018C16.3389 3.84978 16.3837 3.93937 16.4733 3.96497C19.0974 4.75215 19.5325 6.97291 19.4238 7.9841C19.4195 8.02652 19.4323 8.0689 19.4593 8.10192C19.4862 8.13492 19.5253 8.15585 19.5677 8.16009C19.6102 8.16434 19.6526 8.15154 19.6856 8.12454C19.7186 8.09753 19.7395 8.05853 19.7437 8.0161C19.814 7.03091 19.5333 6.05266 18.951 5.25484C18.3686 4.45703 17.5227 3.89122 16.5629 3.65777C16.5428 3.65188 16.5217 3.65003 16.5008 3.65232C16.4799 3.6546 16.4597 3.66098 16.4412 3.67109C16.4228 3.68118 16.4066 3.69482 16.3934 3.7112C16.3803 3.72759 16.3704 3.74639 16.3646 3.76657V3.76018Z" fill="white"/>
<path d="M16.5126 2.11545C16.4869 2.19864 16.5317 2.28824 16.6213 2.30744C20.3268 3.42742 20.9348 6.56336 20.7812 7.98414C20.7791 8.00515 20.7812 8.02637 20.7873 8.04658C20.7934 8.0668 20.8034 8.08561 20.8167 8.10196C20.8302 8.1183 20.8466 8.13184 20.8652 8.14183C20.8838 8.15181 20.9042 8.15804 20.9253 8.16013C20.9462 8.16223 20.9674 8.16017 20.9877 8.15408C21.0079 8.14797 21.0267 8.13795 21.0431 8.12459C21.0594 8.11121 21.073 8.09475 21.083 8.07614C21.0928 8.05754 21.0991 8.03715 21.1012 8.01614C21.2613 6.49936 20.6084 3.17783 16.7109 2.00664C16.6907 2.00076 16.6697 1.99891 16.6487 2.00119C16.6278 2.00348 16.6075 2.00985 16.5892 2.01995C16.5708 2.03006 16.5545 2.04369 16.5414 2.06007C16.5282 2.07646 16.5184 2.09527 16.5126 2.11545Z" fill="white"/>
</svg>

<svg xmlns="http://www.w3.org/2000/svg" width="24" height="24" fill="none" viewBox="0 0 24 24">
    <path fill="#fff" d="M4.397 18.8c-.237-.026-.717-.243-.717-.922 0-.684.563-.985.845-.998 1.382 0 1.683-1.024 1.715-1.594v-5.03c0-3.264 2.79-4.787 4.134-5.139 0-1.26 1.012-1.638 1.588-1.677h.076c.576.039 1.588.416 1.588 1.677 1.344.352 4.134 1.875 4.134 5.14v5.03c.032.575.333 1.593 1.715 1.593.282.013.845.32.845.998 0 .679-.48.896-.717.922zM12 22c-1.594 0-2.88-1.152-2.88-2.56h5.76c0 1.408-1.286 2.56-2.88 2.56"/>
    <path fill="#fff" d="M4.397 18.8h15.206c.237-.026.717-.243.717-.922 0-.684-.563-.985-.845-.998-1.382 0-1.683-1.024-1.715-1.594v-5.03c0-3.264-2.79-4.787-4.134-5.139 0-1.26-1.011-1.638-1.588-1.677h-.076c-.576.039-1.588.416-1.588 1.677-1.343.352-4.134 1.875-4.134 5.14v5.03a1.87 1.87 0 0 1-1.92 1.708c-.281.013-.64.199-.64.883 0 .679.48.896.717.922M7.635 3.76a.16.16 0 0 1-.109.205c-2.624.787-3.06 3.008-2.95 4.02a.16.16 0 0 1-.32.031 4.18 4.18 0 0 1 3.18-4.358.157.157 0 0 1 .199.109z"/>
    <path fill="#fff" d="M7.488 2.115a.16.16 0 0 1-.109.192c-3.705 1.12-4.313 4.256-4.16 5.677a.16.16 0 1 1-.32.032c-.16-1.517.493-4.838 4.39-6.01a.16.16 0 0 1 .199.11m8.877 1.644c-.026.09.019.18.108.205 2.624.787 3.06 3.008 2.95 4.02a.16.16 0 1 0 .32.031 4.18 4.18 0 0 0-3.18-4.358.16.16 0 0 0-.198.109z"/>
    <path fill="#fff" d="M16.513 2.115a.15.15 0 0 0 .108.192c3.706 1.12 4.314 4.256 4.16 5.677a.16.16 0 0 0 .32.032c.16-1.517-.493-4.838-4.39-6.01a.16.16 0 0 0-.198.11"/>
</svg>
